www/assets/icons/security_update.svg

<svg xmlns="http://www.w3.org/2000/svg" width="24" height="24" viewBox="0 0 24 24" fill='currentColor'><path d="M5 3v18c0 1.1.9 2 2 2h10c1.1 0 2-.9 2-2V3c0-1.1-.9-2-2-2H7c-1.1 0-2 .9-2 2m12 15H7V6h10zm-1-6h-3V8h-2v4H8l4 4z"/></svg>

<svg width="24" height="24" viewBox="0 0 24 24" xmlns="http://www.w3.org/2000/svg" fill='currentColor'><path d="M5 3V21C5 22.1 5.9 23 7 23H17C18.1 23 19 22.1 19 21V3C19 1.9 18.1 1 17 1H7C5.9 1 5 1.9 5 3ZM17 18H7V6H17V18ZM16 12H13V8H11V12H8L12 16L16 12Z"/></svg>
